X: 281
T: Benim Gönlüm O Gül Gamzenle
C: Osman Nuri Özpekel
O: Turkey
F: http://compmusic.upf.edu/node/140
N: buselik--sarki--curcuna--benim_gonlum--osman_nuri_ozpekel
N: makam= buselik
N: form= sarki
N: usul= curcuna = 10/8
M: 10/8
L: 1/16
K: C    
Q: 1/4=198
%%MIDI tuningsystem comma53
A4 f2e2 d2e2 d2c2 B2A2  | B2d2 c2B2 A2^G2 B2A6  | \
w:  ARANAĞME  |   | 
A4 g2f2 e2a2 g2f2 e2d2  | 
w:   | 
e2g2 f2e2 d2c2 d2e6  | z4 d2_7/8e2 d2g2 f2e2 d2f2  | \
w:   |   | 
_7/8e2d2 c2B2 d2c2 B2d2 B2A2  | 
w:   | 
G4 B2c4c2 B2B4A2  | A4 d2c2 B2A2 ^G2A6  | \
w:   |   | 
A4 f2e2 d2e2 d2c2 B2A2  | 
w:  ARANAĞME  | 
B2d2 c2B2 A2^G2 B2A6  | A4 g2f2 e2a2 g2f2 e2d2  | \
w:   |   | 
e2g2 f2e2 d2c2 d2e6  | 
w:   | 
z4 d2_7/8e2 d2g2 f2e2 d2f2  | _7/8e2d2 c2B2 d2c2 B2d2 B2A2  | \
w:   |   | 
G4 B2c4c2 B2B4A2  | 
w:   | 
A4 d2c2 B2A2 ^G2A6  | z4 G2c4d4e6  | \
w:   |  Be nim  gön lüm   | 
z4 f2e2 d2c2 B2c6  | c4 B2c4d2 f2e2 d2c2  | 
w:  o  gül  *  gam *  zen  |  *  le  bir  gün  *  şâd   | 
B2A2 d2c2 B2A2 A^GA6  | z4 f2e2 d2c2 B2A4B2  | \
w:  *  *  o lur  *  mu    |  SAZ  | 
G4 G2c4d4e6  | 
w:  *  Be nim  gön lüm   | 
z4 f2e2 d2c2 B2c6  | c4 d2e4e4e2 f2g2  | \
w:  o  gül  *  gam *  zen  |  *  le  bir  gün  şâd   | 
a4 a2a2 g2f2 fee6  | 
w:  *  o lur  *  mu    | 
z4 f2e2 d2c2 d2e6  | z4 d2e4e4a4e2  | \
w:  SAZ  |  Gi der ken  ver  | 
e4 f2e2 d2c2 d2e6  | _1/4e4 d2_7/8e4e2 d2d4dc  | 
w:  *  di ğin  *  bû *  sen  |  *  le  hiç  dil *  şâd   | 
c4 d2_7/8e2 d2c2 cBc6  | z4 e2d2 c2B2 d2c6  | \
w:  *  o lur  *  mu    |  SAZ  | 
z4 c2B2 A2^G2 B2A6  | 
w:  Gi der *  ken  *  ver  | 
A4 B2c4d4e6  | e4 B2c4d2 f2e2 d2c2  | \
w:  *  di ğin  bû sen  |  *  le  hiç  dil *  şâd   | 
B2A2 d2c2 B2A2 A^GA6  | 
w:  *  *  o lur  *  mu    | 
z4 c'2b2 a2^g2 b2a6  | z4 c'2b2 a2^g2 ^1/4f2e6  | \
w:  SAZ  |  Ne den  *  câ *  nâ   | 
z4 d'2c'2 b2a2 ^g2a6  | 
w:  se nin  *  der *  din   | 
z4 e'2d'2 c'2b2 a2^g2 a2b2  | ^g4 a2a2 =g2^1/4f2 fee6  | \
w:  be nim  *  öm *  rüm  |  *  le  ar *  tar    | 
z4 c'2b2 a2^g2 b2a6  | 
w:  SAZ  | 
z4 c'2b2 a2^g2 ^1/4f2e6  | z4 d'2c'2 b2a2 ^g2a6  | \
w:  Ne den  *  câ *  nâ   |  se nin  *  der *  din   | 
z4 e'2d'2 c'2b2 a2g2 a2b2  | 
w:  be nim  *  öm *  rüm  | 
g4 a2a2 g2f2 fee6  | z4 f2e2 d2c2 d2e6  | \
w:  *  le  ar *  tar    |  SAZ  | 
z4 d2e4e4a4e2  | 
w:  Gi der ken  ver  | 
e4 f2e2 d2c2 d2e6  | _1/4e4 d2_7/8e4e2 d2d4dc  | \
w:  *  di ğin  *  bû *  sen  |  *  le  hiç  dil *  şâd   | 
c4 d2_7/8e2 d2c2 cBc6  | 
w:  *  o lur  *  mu    | 
z4 e2d2 c2B2 d2c6  | z4 c2B2 A2^G2 B2A6  | \
w:  SAZ  |  Gi der *  ken  *  ver  | 
A4 B2c4d4e6  | e4 B2c4d2 f2e2 d2c2  | 
w:  *  di ğin  bû sen  |  *  le  hiç  dil *  şâd   | 
B2A2 d2c2 B2A2 A^GA6  | |


